; generated by PrusaSlicer 2.3.3+arm64 on 2021-12-13 at 11:37:53 UTC

; 

; external perimeters extrusion width = 0.60mm
; perimeters extrusion width = 0.50mm
; infill extrusion width = 0.50mm
; solid infill extrusion width = 0.50mm
; top infill extrusion width = 0.45mm
; support material extrusion width = 0.38mm
; first layer extrusion width = 0.42mm

M73 P0 R678
M73 Q0 S691
M201 X1000 Y1000 Z200 E5000 ; sets maximum accelerations, mm/sec^2
M203 X200 Y200 Z12 E120 ; sets maximum feedrates, mm/sec
M204 P1250 R1250 T1250 ; sets acceleration (P, T) and retract acceleration (R), mm/sec^2
M205 X8.00 Y8.00 Z0.40 E4.50 ; sets the jerk limits, mm/sec
M205 S0 T0 ; sets the minimum extruding and travel feed rate, mm/sec
M107
;TYPE:Custom
M862.3 P "MK3S" ; printer model check
M862.1 P0.4 ; nozzle diameter check
M115 U3.10.0 ; tell printer latest fw version
G90 ; use absolute coordinates
M83 ; extruder relative mode
M104 S215 ; set extruder temp
M140 S60 ; set bed temp
M190 S60 ; wait for bed temp
M109 S215 ; wait for extruder temp
G28 W ; home all without mesh bed level
G80 ; mesh bed leveling
G1 Y-3.0 F1000.0 ; go outside print area
G92 E0.0
G1 X60.0 E9.0 F1000.0 ; intro line
G1 X100.0 E12.5 F1000.0 ; intro line
G92 E0.0
M221 S95

; Don't change E values below. Excessive value can damage the printer.

M907 E538 ; set extruder motor current
G21 ; set units to millimeters
G90 ; use absolute coordinates
M83 ; use relative distances for extrusion
M900 K0.05 ; Filament gcode LA 1.5
M900 K30 ; Filament gcode LA 1.0
;LAYER_CHANGE
;Z:0.2
;HEIGHT:0.2
;BEFORE_LAYER_CHANGE
G92 E0.0
;0.2


G1 E-0.80000 F2100.000
G1 Z0.400 F10800.000
;AFTER_LAYER_CHANGE
;0.2
G1 X27.572 Y9.370
G1 Z0.200
G1 E0.80000 F2100.000
M204 S1000
;TYPE:Skirt
;WIDTH:0.42
G1 F1200.000
G1 X27.766 Y8.882 E0.01645
G1 X28.062 Y8.449 E0.01645
G1 X28.446 Y8.092 E0.01645
G1 X28.899 Y7.827 E0.01645
G1 X42.710 Y2.551 E0.46355
G1 X43.245 Y2.418 E0.01728
G1 X82.772 Y2.228 E1.23936
G1 X167.340 Y2.400 E2.65160
G1 X220.404 Y7.638 E1.67185
G1 X220.897 Y7.748 E0.01585
G1 X221.356 Y7.960 E0.01585
G1 X221.760 Y8.264 E0.01585
G1 X222.088 Y8.644 E0.01574
G1 X222.384 Y9.226 E0.02048
G1 X222.510 Y9.871 E0.02060
G1 X226.924 Y97.295 E2.74460
M73 P0 R677
G1 X226.926 Y117.409 E0.63066
G1 X222.508 Y200.153 E2.59809
G1 X222.413 Y200.681 E0.01680
G1 X222.205 Y201.171 E0.01668
G1 X221.893 Y201.601 E0.01668
G1 X221.492 Y201.952 E0.01668
G1 X220.848 Y202.268 E0.02249
G1 X220.140 Y202.377 E0.02249
G1 X29.856 Y202.377 E5.96620
G1 X29.294 Y202.308 E0.01775
G1 X28.761 Y202.106 E0.01787
G1 X28.292 Y201.783 E0.01787
G1 X27.913 Y201.357 E0.01787
G1 X27.617 Y200.775 E0.02048
G1 X27.491 Y200.138 E0.02036
G1 X23.074 Y117.406 E2.59769
G1 X23.076 Y97.301 E0.63040
G1 X27.490 Y9.880 E2.74450
M73 Q0 S690
G1 X27.562 Y9.429 E0.01433
; printing object finalfinal.stl id:0 copy 0
;WIPE_START
G1 F8640.000
G1 X27.766 Y8.882 E-0.13468
G1 X28.062 Y8.449 E-0.12113
G1 X28.446 Y8.092 E-0.12113
G1 X28.899 Y7.827 E-0.12113
G1 X29.959 Y7.423 E-0.26194
;WIPE_END
G1 E-0.04000 F2100.000
G1 Z0.600 F10800.000
G1 X43.551 Y10.681
G1 Z0.200
G1 E0.80000 F2100.000
;TYPE:Support material
G1 F1200.000
G1 X43.551 Y4.775 E0.18519
G1 X44.305 Y4.775 E0.02365
G1 X44.305 Y10.511 E0.17987
G1 X45.059 Y10.511 E0.02365
G1 X45.059 Y4.775 E0.17987
G1 X45.813 Y4.775 E0.02365
G1 X45.813 Y10.511 E0.17987
G1 X46.567 Y10.511 E0.02365
G1 X46.567 Y4.775 E0.17987
G1 X47.322 Y4.775 E0.02365
G1 X47.322 Y10.511 E0.17987
G1 X48.076 Y10.511 E0.02365
G1 X48.076 Y4.775 E0.17987
G1 X48.830 Y4.775 E0.02365
G1 X48.830 Y10.511 E0.17987
G1 X49.584 Y10.511 E0.02365
G1 X49.584 Y4.775 E0.17987
G1 X50.338 Y4.775 E0.02365
G1 X50.338 Y10.511 E0.17987
G1 X51.092 Y10.511 E0.02365
G1 X51.092 Y4.775 E0.17987
G1 X51.847 Y4.775 E0.02365
G1 X51.847 Y10.511 E0.17987
G1 X52.601 Y10.511 E0.02365
G1 X52.601 Y4.775 E0.17987
G1 X53.355 Y4.775 E0.02365
G1 X53.355 Y10.511 E0.17987
G1 X54.109 Y10.511 E0.02365
G1 X54.109 Y4.775 E0.17987
G1 X54.863 Y4.775 E0.02365
G1 X54.863 Y10.511 E0.17987
G1 X55.617 Y10.511 E0.02365
G1 X55.617 Y4.775 E0.17987
G1 X56.372 Y4.775 E0.02365
G1 X56.372 Y10.511 E0.17987
G1 X57.126 Y10.511 E0.02365
G1 X57.126 Y4.775 E0.17987
G1 X57.880 Y4.775 E0.02365
G1 X57.880 Y10.511 E0.17987
G1 X58.634 Y10.511 E0.02365
G1 X58.634 Y4.775 E0.17987
G1 X59.388 Y4.775 E0.02365
G1 X59.388 Y10.511 E0.17987
G1 X60.142 Y10.511 E0.02365
G1 X60.142 Y4.775 E0.17987
G1 X60.896 Y4.775 E0.02365
G1 X60.896 Y10.511 E0.17987
G1 X61.651 Y10.511 E0.02365
G1 X61.651 Y4.775 E0.17987
G1 X62.405 Y4.775 E0.02365
G1 X62.405 Y10.511 E0.17987
G1 X63.159 Y10.511 E0.02365
G1 X63.159 Y4.775 E0.17987
G1 X63.913 Y4.775 E0.02365
G1 X63.913 Y10.511 E0.17987
G1 X64.667 Y10.511 E0.02365
G1 X64.667 Y4.775 E0.17987
G1 X65.421 Y4.775 E0.02365
G1 X65.421 Y10.511 E0.17987
G1 X66.176 Y10.511 E0.02365
G1 X66.176 Y4.775 E0.17987
G1 X66.930 Y4.775 E0.02365
G1 X66.930 Y10.511 E0.17987
G1 X67.684 Y10.511 E0.02365
G1 X67.684 Y4.775 E0.17987
G1 X68.438 Y4.775 E0.02365
G1 X68.438 Y10.511 E0.17987
G1 X69.192 Y10.511 E0.02365
G1 X69.192 Y4.775 E0.17987
G1 X69.946 Y4.775 E0.02365
G1 X69.946 Y10.511 E0.17987
G1 X70.701 Y10.511 E0.02365
G1 X70.701 Y4.775 E0.17987
G1 X71.455 Y4.775 E0.02365
G1 X71.455 Y10.511 E0.17987
G1 X72.209 Y10.511 E0.02365
G1 X72.209 Y4.775 E0.17987
G1 X72.963 Y4.775 E0.02365
G1 X72.963 Y10.511 E0.17987
G1 X73.717 Y10.511 E0.02365
G1 X73.717 Y4.775 E0.17987
G1 X74.471 Y4.775 E0.02365
G1 X74.471 Y10.511 E0.17987
G1 X75.226 Y10.511 E0.02365
G1 X75.226 Y4.775 E0.17987
G1 X75.980 Y4.775 E0.02365
G1 X75.980 Y10.511 E0.17987
G1 X76.734 Y10.511 E0.02365
G1 X76.734 Y4.775 E0.17987
G1 X77.488 Y4.775 E0.02365
G1 X77.488 Y10.511 E0.17987
G1 X77.781 Y10.511 E0.00918
G1 X77.764 Y9.816 E0.02182
G1 X78.053 Y9.511 E0.01316
G1 X78.242 Y9.511 E0.00592
G1 X78.242 Y4.775 E0.14851
G1 X78.996 Y4.775 E0.02365
G1 X78.996 Y9.681 E0.15384
;WIPE_START
G1 F8640.000
G1 X78.996 Y6.390 E-0.76000
;WIPE_END
G1 E-0.04000 F2100.000
G1 Z0.600 F10800.000
G1 X82.767 Y4.605
G1 Z0.200
G1 E0.80000 F2100.000
G1 F1200.000
G1 X82.767 Y9.511 E0.15384
G1 X83.521 Y9.511 E0.02365
G1 X83.521 Y4.775 E0.14851
G1 X84.275 Y4.775 E0.02365
G1 X84.275 Y9.511 E0.14851
G1 X85.030 Y9.511 E0.02365
G1 X85.030 Y4.775 E0.14851
G1 X85.784 Y4.775 E0.02365
G1 X85.784 Y9.511 E0.14851
G1 X86.538 Y9.511 E0.02365
G1 X86.538 Y4.775 E0.14851
G1 X87.292 Y4.775 E0.02365
G1 X87.292 Y9.511 E0.14851
G1 X88.046 Y9.511 E0.02365
G1 X88.046 Y4.775 E0.14851
G1 X88.800 Y4.775 E0.02365
G1 X88.800 Y9.511 E0.14851
G1 X89.555 Y9.511 E0.02365
G1 X89.555 Y4.775 E0.14851
G1 X90.309 Y4.775 E0.02365
G1 X90.309 Y9.511 E0.14851
G1 X91.063 Y9.511 E0.02365
G1 X91.063 Y4.775 E0.14851
G1 X91.817 Y4.775 E0.02365
G1 X91.817 Y9.511 E0.14851
G1 X92.571 Y9.511 E0.02365
G1 X92.571 Y4.775 E0.14851
G1 X93.325 Y4.775 E0.02365
G1 X93.325 Y9.511 E0.14851
G1 X94.079 Y9.511 E0.02365
G1 X94.079 Y4.775 E0.14851
G1 X94.834 Y4.775 E0.02365
G1 X94.834 Y9.511 E0.14851
G1 X95.588 Y9.511 E0.02365
G1 X95.588 Y4.775 E0.14851
G1 X96.342 Y4.775 E0.02365
G1 X96.342 Y9.511 E0.14851
G1 X97.096 Y9.511 E0.02365
G1 X97.096 Y4.775 E0.14851
G1 X97.850 Y4.775 E0.02365
G1 X97.850 Y9.511 E0.14851
G1 X98.604 Y9.511 E0.02365
G1 X98.604 Y4.775 E0.14851
G1 X99.359 Y4.775 E0.02365
G1 X99.359 Y9.511 E0.14851
G1 X100.113 Y9.511 E0.02365
G1 X100.113 Y4.775 E0.14851
G1 X100.867 Y4.775 E0.02365
G1 X100.867 Y9.511 E0.14851
G1 X101.621 Y9.511 E0.02365
G1 X101.621 Y4.775 E0.14851
G1 X102.375 Y4.775 E0.02365
G1 X102.375 Y9.511 E0.14851
G1 X103.129 Y9.511 E0.02365
G1 X103.129 Y4.775 E0.14851
G1 X103.884 Y4.775 E0.02365
G1 X103.884 Y9.511 E0.14851
G1 X104.638 Y9.511 E0.02365
G1 X104.638 Y4.775 E0.14851
G1 X105.392 Y4.775 E0.02365
G1 X105.392 Y9.511 E0.14851
G1 X106.146 Y9.511 E0.02365
G1 X106.146 Y4.775 E0.14851
G1 X106.900 Y4.775 E0.02365
G1 X106.900 Y9.511 E0.14851
G1 X107.654 Y9.511 E0.02365
G1 X107.654 Y4.775 E0.14851
G1 X108.409 Y4.775 E0.02365
G1 X108.409 Y9.511 E0.14851
G1 X109.163 Y9.511 E0.02365
G1 X109.163 Y4.775 E0.14851
G1 X109.917 Y4.775 E0.02365
G1 X109.917 Y9.511 E0.14851
G1 X110.671 Y9.511 E0.02365
G1 X110.671 Y4.775 E0.14851
G1 X111.425 Y4.775 E0.02365
G1 X111.425 Y9.511 E0.14851
G1 X112.179 Y9.511 E0.02365
G1 X112.179 Y4.775 E0.14851
G1 X112.933 Y4.775 E0.02365
G1 X112.933 Y9.511 E0.14851
G1 X113.688 Y9.511 E0.02365
G1 X113.688 Y4.775 E0.14851
G1 X114.442 Y4.775 E0.02365
G1 X114.442 Y9.511 E0.14851
G1 X115.196 Y9.511 E0.02365
G1 X115.196 Y4.775 E0.14851
G1 X115.950 Y4.775 E0.02365
G1 X115.950 Y9.511 E0.14851
G1 X116.704 Y9.511 E0.02365
G1 X116.704 Y4.775 E0.14851
G1 X117.458 Y4.775 E0.02365
G1 X117.458 Y9.511 E0.14851
G1 X118.213 Y9.511 E0.02365
G1 X118.213 Y4.775 E0.14851
G1 X118.967 Y4.775 E0.02365
G1 X118.967 Y9.511 E0.14851
G1 X119.721 Y9.511 E0.02365
G1 X119.721 Y4.775 E0.14851
M73 P0 R676
G1 X120.475 Y4.775 E0.02365
G1 X120.475 Y9.511 E0.14851
G1 X121.229 Y9.511 E0.02365
G1 X121.229 Y4.775 E0.14851
G1 X121.983 Y4.775 E0.02365
G1 X121.983 Y9.511 E0.14851
G1 X122.738 Y9.511 E0.02365
G1 X122.738 Y4.775 E0.14851
G1 X123.492 Y4.775 E0.02365
G1 X123.492 Y9.511 E0.14851
G1 X124.246 Y9.511 E0.02365
G1 X124.246 Y4.775 E0.14851
G1 X125.000 Y4.775 E0.02365
G1 X125.000 Y9.511 E0.14851
G1 X125.754 Y9.511 E0.02365
G1 X125.754 Y4.775 E0.14851
G1 X126.508 Y4.775 E0.02365
G1 X126.508 Y9.511 E0.14851
G1 X127.262 Y9.511 E0.02365
G1 X127.262 Y4.775 E0.14851
G1 X128.017 Y4.775 E0.02365
G1 X128.017 Y9.511 E0.14851
G1 X128.771 Y9.511 E0.02365
G1 X128.771 Y4.775 E0.14851
G1 X129.525 Y4.775 E0.02365
G1 X129.525 Y9.511 E0.14851
G1 X130.279 Y9.511 E0.02365
G1 X130.279 Y4.775 E0.14851
G1 X131.033 Y4.775 E0.02365
G1 X131.033 Y9.511 E0.14851
G1 X131.787 Y9.511 E0.02365
G1 X131.787 Y4.775 E0.14851
G1 X132.542 Y4.775 E0.02365
G1 X132.542 Y9.511 E0.14851
G1 X133.296 Y9.511 E0.02365
G1 X133.296 Y4.775 E0.14851
G1 X134.050 Y4.775 E0.02365
G1 X134.050 Y9.511 E0.14851
G1 X134.804 Y9.511 E0.02365
G1 X134.804 Y4.775 E0.14851
G1 X135.558 Y4.775 E0.02365
G1 X135.558 Y9.511 E0.14851
G1 X136.312 Y9.511 E0.02365
G1 X136.312 Y4.775 E0.14851
G1 X137.067 Y4.775 E0.02365
G1 X137.067 Y9.511 E0.14851
G1 X137.821 Y9.511 E0.02365
G1 X137.821 Y4.775 E0.14851
G1 X138.575 Y4.775 E0.02365
G1 X138.575 Y9.511 E0.14851
G1 X139.329 Y9.511 E0.02365
G1 X139.329 Y4.775 E0.14851
G1 X140.083 Y4.775 E0.02365
G1 X140.083 Y9.511 E0.14851
G1 X140.837 Y9.511 E0.02365
G1 X140.837 Y4.775 E0.14851
G1 X141.592 Y4.775 E0.02365
G1 X141.592 Y9.511 E0.14851
G1 X142.346 Y9.511 E0.02365
G1 X142.346 Y4.775 E0.14851
G1 X143.100 Y4.775 E0.02365
G1 X143.100 Y9.511 E0.14851
G1 X143.854 Y9.511 E0.02365
G1 X143.854 Y4.775 E0.14851
G1 X144.608 Y4.775 E0.02365
G1 X144.608 Y9.511 E0.14851
G1 X145.362 Y9.511 E0.02365
G1 X145.362 Y4.775 E0.14851
G1 X146.116 Y4.775 E0.02365
G1 X146.116 Y9.511 E0.14851
G1 X146.871 Y9.511 E0.02365
G1 X146.871 Y4.775 E0.14851
G1 X147.625 Y4.775 E0.02365
G1 X147.625 Y9.511 E0.14851
G1 X148.379 Y9.511 E0.02365
G1 X148.379 Y4.775 E0.14851
G1 X149.133 Y4.775 E0.02365
G1 X149.133 Y9.511 E0.14851
G1 X149.887 Y9.511 E0.02365
G1 X149.887 Y4.775 E0.14851
G1 X150.641 Y4.775 E0.02365
G1 X150.641 Y9.511 E0.14851
G1 X151.396 Y9.511 E0.02365
G1 X151.396 Y4.775 E0.14851
G1 X152.150 Y4.775 E0.02365
G1 X152.150 Y9.511 E0.14851
G1 X152.904 Y9.511 E0.02365
G1 X152.904 Y4.775 E0.14851
G1 X153.658 Y4.775 E0.02365
G1 X153.658 Y9.511 E0.14851
G1 X154.412 Y9.511 E0.02365
G1 X154.412 Y4.775 E0.14851
G1 X155.166 Y4.775 E0.02365
G1 X155.166 Y9.511 E0.14851
G1 X155.921 Y9.511 E0.02365
G1 X155.921 Y4.775 E0.14851
G1 X156.675 Y4.775 E0.02365
G1 X156.675 Y9.511 E0.14851
G1 X157.429 Y9.511 E0.02365
G1 X157.429 Y4.775 E0.14851
G1 X158.183 Y4.775 E0.02365
G1 X158.183 Y9.511 E0.14851
G1 X158.937 Y9.511 E0.02365
G1 X158.937 Y4.775 E0.14851
G1 X159.691 Y4.775 E0.02365
G1 X159.691 Y9.511 E0.14851
G1 X160.445 Y9.511 E0.02365
G1 X160.445 Y4.775 E0.14851
G1 X161.200 Y4.775 E0.02365
G1 X161.200 Y9.511 E0.14851
G1 X161.954 Y9.511 E0.02365
G1 X161.954 Y4.775 E0.14851
G1 X162.708 Y4.775 E0.02365
G1 X162.708 Y9.511 E0.14851
G1 X163.462 Y9.511 E0.02365
G1 X163.462 Y4.775 E0.14851
G1 X164.216 Y4.775 E0.02365
G1 X164.216 Y9.511 E0.14851
G1 X164.970 Y9.511 E0.02365
G1 X164.970 Y4.775 E0.14851
G1 X165.725 Y4.775 E0.02365
G1 X165.725 Y9.511 E0.14851
G1 X166.479 Y9.511 E0.02365
G1 X166.479 Y4.775 E0.14851
G1 X167.233 Y4.775 E0.02365
G1 X167.233 Y9.681 E0.15384
;WIPE_START
G1 F8640.000
G1 X167.233 Y6.390 E-0.76000
;WIPE_END
G1 E-0.04000 F2100.000
G1 Z0.600 F10800.000
G1 X220.778 Y117.401
G1 Z0.200
G1 E0.80000 F2100.000
G1 F1200.000
G1 X220.778 Y97.400 E0.62714
G1 X221.532 Y97.400 E0.02365
G1 X221.532 Y117.232 E0.62182
G1 X222.287 Y117.232 E0.02365
G1 X222.287 Y97.400 E0.62182
G1 X223.041 Y97.400 E0.02365
G1 X223.041 Y117.232 E0.62182
G1 X223.795 Y117.232 E0.02365
G1 X223.795 Y97.400 E0.62182
M73 Q0 S689
G1 X224.549 Y97.400 E0.02365
G1 X224.549 Y117.401 E0.62714
;WIPE_START
G1 F8640.000
G1 X224.549 Y114.110 E-0.76000
;WIPE_END
G1 E-0.04000 F2100.000
G1 Z0.600 F10800.000
G1 X29.222 Y117.401
G1 Z0.200
G1 E0.80000 F2100.000
G1 F1200.000
G1 X29.222 Y97.400 E0.62714
G1 X28.468 Y97.400 E0.02365
G1 X28.468 Y117.232 E0.62182
G1 X27.713 Y117.232 E0.02365
G1 X27.713 Y97.400 E0.62182
G1 X26.959 Y97.400 E0.02365
G1 X26.959 Y117.232 E0.62182
G1 X26.205 Y117.232 E0.02365
G1 X26.205 Y97.400 E0.62182
G1 X25.451 Y97.400 E0.02365
G1 X25.451 Y117.401 E0.62714
;WIPE_START
G1 F8640.000
G1 X25.451 Y114.110 E-0.76000
;WIPE_END
G1 E-0.04000 F2100.000
G1 Z0.600 F10800.000
G1 X101.963 Y115.537
G1 Z0.200
G1 E0.80000 F2100.000
;TYPE:Perimeter
G1 F1200.000
G1 X101.963 Y94.463 E0.66077
G1 X148.037 Y94.463 E1.44462
G1 X148.037 Y115.537 E0.66077
G1 X102.023 Y115.537 E1.44274
G1 X102.340 Y115.160 F10800.000
;TYPE:External perimeter
G1 F1200.000
G1 X102.340 Y94.840 E0.63712
G1 X147.660 Y94.840 E1.42098
G1 X147.660 Y115.160 E0.63712
G1 X102.400 Y115.160 E1.41910
G1 X101.944 Y115.216 F10800.000
;WIPE_START
G1 F8640.000
G1 X102.390 Y111.869 E-0.76000
;WIPE_END
G1 E-0.04000 F2100.000
G1 Z0.600 F10800.000
G1 X42.149 Y11.787
G1 Z0.200
G1 E0.80000 F2100.000
;TYPE:Perimeter
G1 F1200.000
G1 X79.056 Y11.787 E1.15722
G1 X79.056 Y10.787 E0.03135
G1 X219.349 Y10.787 E4.39877
G1 X219.349 Y199.213 E5.90796
M73 P0 R675
G1 X30.651 Y199.213 E5.91649
G1 X30.651 Y10.787 E5.90796
M73 Q0 S688
G1 X42.149 Y10.787 E0.36050
G1 X42.149 Y11.727 E0.02947
G1 X42.526 Y11.410 F10800.000
;TYPE:External perimeter
G1 F1200.000
G1 X78.679 Y11.410 E1.13357
G1 X78.679 Y10.410 E0.03135
G1 X219.726 Y10.410 E4.42242
G1 X219.726 Y199.590 E5.93161
G1 X30.274 Y199.590 E5.94013
G1 X30.274 Y10.410 E5.93161
M73 P0 R674
G1 X42.526 Y10.410 E0.38414
G1 X42.526 Y11.350 E0.02947
G1 X42.716 Y11.762 F10800.000
;WIPE_START
G1 F8640.000
G1 X45.817 Y11.355 E-0.76000
;WIPE_END
G1 E-0.04000 F2100.000
G1 Z0.600 F10800.000
G1 X219.236 Y11.663
G1 Z0.200
G1 E0.80000 F2100.000
;TYPE:Solid infill
;WIDTH:0.420257
G1 F1200.000
G1 X218.643 Y11.070 E0.02632
G1 X218.109 Y11.070 E0.01674
G1 X219.066 Y12.027 E0.04247
G1 X219.066 Y12.561 E0.01674
G1 X217.575 Y11.070 E0.06615
G1 X217.042 Y11.070 E0.01674
G1 X219.066 Y13.094 E0.08982
G1 X219.066 Y13.628 E0.01674
G1 X216.508 Y11.070 E0.11350
G1 X215.975 Y11.070 E0.01674
G1 X219.066 Y14.161 E0.13718
G1 X219.066 Y14.695 E0.01674
G1 X215.441 Y11.070 E0.16086
G1 X214.907 Y11.070 E0.01674
G1 X219.066 Y15.229 E0.18454
G1 X219.066 Y15.762 E0.01674
G1 X214.374 Y11.070 E0.20822
G1 X213.840 Y11.070 E0.01674
G1 X219.066 Y16.296 E0.23189
G1 X219.066 Y16.830 E0.01674
G1 X213.306 Y11.070 E0.25557
G1 X212.773 Y11.070 E0.01674
G1 X219.066 Y17.363 E0.27925
G1 X219.066 Y17.897 E0.01674
G1 X212.239 Y11.070 E0.30293
G1 X211.705 Y11.070 E0.01674
G1 X219.066 Y18.431 E0.32661
G1 X219.066 Y18.964 E0.01674
G1 X211.172 Y11.070 E0.35029
G1 X210.638 Y11.070 E0.01674
G1 X219.066 Y19.498 E0.37397
G1 X219.066 Y20.031 E0.01674
G1 X210.105 Y11.070 E0.39764
G1 X209.571 Y11.070 E0.01674
G1 X219.066 Y20.565 E0.42132
G1 X219.066 Y21.099 E0.01674
G1 X209.037 Y11.070 E0.44500
G1 X208.504 Y11.070 E0.01674
G1 X219.066 Y21.632 E0.46868
G1 X219.066 Y22.166 E0.01674
G1 X207.970 Y11.070 E0.49236
G1 X207.436 Y11.070 E0.01674
