; generated by PrusaSlicer 2.3.3+arm64 on 2021-12-11 at 18:23:55 UTC

; 

; external perimeters extrusion width = 0.60mm
; perimeters extrusion width = 0.50mm
; infill extrusion width = 0.50mm
; solid infill extrusion width = 0.50mm
; top infill extrusion width = 0.45mm
; support material extrusion width = 0.38mm
; first layer extrusion width = 0.42mm

M73 P0 R642
M73 Q0 S655
M201 X1000 Y1000 Z200 E5000 ; sets maximum accelerations, mm/sec^2
M203 X200 Y200 Z12 E120 ; sets maximum feedrates, mm/sec
M204 P1250 R1250 T1250 ; sets acceleration (P, T) and retract acceleration (R), mm/sec^2
M205 X8.00 Y8.00 Z0.40 E4.50 ; sets the jerk limits, mm/sec
M205 S0 T0 ; sets the minimum extruding and travel feed rate, mm/sec
M107
;TYPE:Custom
M862.3 P "MK3S" ; printer model check
M862.1 P0.4 ; nozzle diameter check
M115 U3.10.0 ; tell printer latest fw version
G90 ; use absolute coordinates
M83 ; extruder relative mode
M104 S215 ; set extruder temp
M140 S60 ; set bed temp
M190 S60 ; wait for bed temp
M109 S215 ; wait for extruder temp
G28 W ; home all without mesh bed level
G80 ; mesh bed leveling
G1 Y-3.0 F1000.0 ; go outside print area
G92 E0.0
G1 X60.0 E9.0 F1000.0 ; intro line
G1 X100.0 E12.5 F1000.0 ; intro line
G92 E0.0
M221 S95

; Don't change E values below. Excessive value can damage the printer.

M907 E538 ; set extruder motor current
G21 ; set units to millimeters
G90 ; use absolute coordinates
M83 ; use relative distances for extrusion
M900 K0.05 ; Filament gcode LA 1.5
M900 K30 ; Filament gcode LA 1.0
;LAYER_CHANGE
;Z:0.2
;HEIGHT:0.2
;BEFORE_LAYER_CHANGE
G92 E0.0
;0.2


M73 P0 R641
M73 Q0 S654
G1 E-0.80000 F2100.000
G1 Z0.400 F10800.000
;AFTER_LAYER_CHANGE
;0.2
G1 X27.617 Y9.225
G1 Z0.200
G1 E0.80000 F2100.000
M204 S1000
;TYPE:Skirt
;WIDTH:0.42
G1 F1200.000
G1 X27.913 Y8.642 E0.02048
G1 X28.382 Y8.141 E0.02154
G1 X28.976 Y7.795 E0.02154
G1 X42.721 Y2.547 E0.46130
G1 X43.442 Y2.400 E0.02308
G1 X167.237 Y2.228 E3.88152
G1 X220.441 Y7.643 E1.67680
G1 X221.110 Y7.832 E0.02178
G1 X221.695 Y8.206 E0.02178
G1 X222.147 Y8.733 E0.02178
G1 X222.428 Y9.368 E0.02178
G1 X222.510 Y9.875 E0.01609
G1 X226.924 Y94.984 E2.67211
G1 X226.926 Y117.405 E0.70301
G1 X222.509 Y200.138 E2.59773
G1 X222.382 Y200.779 E0.02048
G1 X222.087 Y201.357 E0.02036
G1 X221.708 Y201.783 E0.01787
G1 X221.242 Y202.104 E0.01775
G1 X220.709 Y202.307 E0.01787
G1 X220.144 Y202.377 E0.01787
G1 X29.860 Y202.377 E5.96620
G1 X29.151 Y202.268 E0.02249
G1 X28.508 Y201.952 E0.02249
G1 X28.107 Y201.601 E0.01668
G1 X27.793 Y201.167 E0.01680
G1 X27.585 Y200.677 E0.01669
G1 X27.492 Y200.153 E0.01668
G1 X23.074 Y117.410 E2.59805
G1 X23.076 Y94.977 E0.70337
G1 X27.491 Y9.865 E2.67221
G1 X27.605 Y9.284 E0.01860
; printing object Body1.stl id:0 copy 0
;WIPE_START
G1 F8640.000
G1 X27.913 Y8.642 E-0.16417
G1 X28.382 Y8.141 E-0.15863
G1 X28.976 Y7.795 E-0.15863
G1 X30.103 Y7.365 E-0.27856
;WIPE_END
G1 E-0.04000 F2100.000
G1 Z0.600 F10800.000
G1 X36.763 Y8.319
G1 Z0.200
G1 E0.80000 F2100.000
;TYPE:Support material
G1 F1200.000
G1 X36.763 Y9.511 E0.03739
G1 X37.518 Y9.511 E0.02365
G1 X37.518 Y8.489 E0.03207
G1 X38.272 Y8.489 E0.02365
G1 X38.272 Y9.511 E0.03207
G1 X39.026 Y9.511 E0.02365
G1 X39.026 Y8.489 E0.03207
G1 X39.780 Y8.489 E0.02365
G1 X39.780 Y9.511 E0.03207
G1 X40.534 Y9.511 E0.02365
G1 X40.534 Y8.489 E0.03207
G1 X41.073 Y8.489 E0.01691
G1 X41.145 Y7.090 E0.04390
G1 X41.288 Y7.090 E0.00448
G1 X41.288 Y9.511 E0.07591
G1 X42.043 Y9.511 E0.02365
G1 X42.043 Y7.090 E0.07591
G1 X42.797 Y7.090 E0.02365
G1 X42.797 Y9.511 E0.07591
G1 X43.551 Y9.511 E0.02365
G1 X43.551 Y4.775 E0.14851
G1 X44.305 Y4.775 E0.02365
G1 X44.305 Y15.344 E0.33140
G1 X45.059 Y15.344 E0.02365
G1 X45.059 Y4.775 E0.33140
G1 X45.813 Y4.775 E0.02365
G1 X45.813 Y15.344 E0.33140
G1 X46.567 Y15.344 E0.02365
G1 X46.567 Y4.775 E0.33140
G1 X47.322 Y4.775 E0.02365
G1 X47.322 Y15.344 E0.33140
G1 X48.076 Y15.344 E0.02365
G1 X48.076 Y4.775 E0.33140
G1 X48.830 Y4.775 E0.02365
G1 X48.830 Y15.344 E0.33140
G1 X49.584 Y15.344 E0.02365
G1 X49.584 Y4.775 E0.33140
G1 X50.338 Y4.775 E0.02365
G1 X50.338 Y15.344 E0.33140
G1 X51.092 Y15.344 E0.02365
G1 X51.092 Y4.775 E0.33140
G1 X51.847 Y4.775 E0.02365
G1 X51.847 Y15.344 E0.33140
G1 X52.601 Y15.344 E0.02365
G1 X52.601 Y4.775 E0.33140
G1 X53.355 Y4.775 E0.02365
G1 X53.355 Y15.344 E0.33140
G1 X54.109 Y15.344 E0.02365
G1 X54.109 Y4.775 E0.33140
G1 X54.863 Y4.775 E0.02365
G1 X54.863 Y15.344 E0.33140
G1 X55.617 Y15.344 E0.02365
G1 X55.617 Y4.775 E0.33140
G1 X56.372 Y4.775 E0.02365
G1 X56.372 Y15.344 E0.33140
G1 X57.126 Y15.344 E0.02365
G1 X57.126 Y4.775 E0.33140
G1 X57.880 Y4.775 E0.02365
G1 X57.880 Y15.344 E0.33140
G1 X58.634 Y15.344 E0.02365
G1 X58.634 Y4.775 E0.33140
G1 X59.388 Y4.775 E0.02365
G1 X59.388 Y15.344 E0.33140
G1 X60.142 Y15.344 E0.02365
G1 X60.142 Y4.775 E0.33140
G1 X60.896 Y4.775 E0.02365
G1 X60.896 Y15.344 E0.33140
G1 X61.651 Y15.344 E0.02365
G1 X61.651 Y4.775 E0.33140
G1 X62.405 Y4.775 E0.02365
G1 X62.405 Y15.344 E0.33140
G1 X63.159 Y15.344 E0.02365
G1 X63.159 Y4.775 E0.33140
G1 X63.913 Y4.775 E0.02365
G1 X63.913 Y15.344 E0.33140
G1 X64.667 Y15.344 E0.02365
G1 X64.667 Y4.775 E0.33140
G1 X65.421 Y4.775 E0.02365
G1 X65.421 Y15.344 E0.33140
G1 X66.176 Y15.344 E0.02365
G1 X66.176 Y4.775 E0.33140
M73 Q0 S653
G1 X66.930 Y4.775 E0.02365
G1 X66.930 Y15.344 E0.33140
M73 P0 R640
G1 X67.684 Y15.344 E0.02365
G1 X67.684 Y4.775 E0.33140
G1 X68.438 Y4.775 E0.02365
G1 X68.438 Y15.344 E0.33140
G1 X69.192 Y15.344 E0.02365
G1 X69.192 Y4.775 E0.33140
G1 X69.946 Y4.775 E0.02365
G1 X69.946 Y15.344 E0.33140
G1 X70.701 Y15.344 E0.02365
G1 X70.701 Y4.775 E0.33140
G1 X71.455 Y4.775 E0.02365
G1 X71.455 Y15.344 E0.33140
G1 X72.209 Y15.344 E0.02365
G1 X72.209 Y4.775 E0.33140
G1 X72.963 Y4.775 E0.02365
G1 X72.963 Y15.344 E0.33140
G1 X73.717 Y15.344 E0.02365
G1 X73.717 Y4.775 E0.33140
G1 X74.471 Y4.775 E0.02365
G1 X74.471 Y15.344 E0.33140
G1 X75.226 Y15.344 E0.02365
G1 X75.226 Y4.775 E0.33140
G1 X75.980 Y4.775 E0.02365
G1 X75.980 Y15.514 E0.33672
G1 X43.551 Y15.514 F10800.000
G1 F1200.000
G1 X43.551 Y11.489 E0.12622
G1 X42.797 Y11.489 E0.02365
G1 X42.797 Y15.344 E0.12090
G1 X42.043 Y15.344 E0.02365
G1 X42.043 Y11.489 E0.12090
G1 X41.288 Y11.489 E0.02365
G1 X41.288 Y15.344 E0.12090
G1 X40.534 Y15.344 E0.02365
G1 X40.534 Y11.489 E0.12090
G1 X39.780 Y11.489 E0.02365
G1 X39.780 Y15.344 E0.12090
G1 X39.026 Y15.344 E0.02365
G1 X39.026 Y11.489 E0.12090
G1 X38.272 Y11.489 E0.02365
G1 X38.272 Y15.344 E0.12090
G1 X37.518 Y15.344 E0.02365
G1 X37.518 Y11.489 E0.12090
G1 X36.763 Y11.489 E0.02365
G1 X36.763 Y15.514 E0.12622
;WIPE_START
G1 F8640.000
G1 X36.763 Y12.223 E-0.76000
;WIPE_END
G1 E-0.04000 F2100.000
G1 Z0.600 F10800.000
G1 X25.451 Y117.401
G1 Z0.200
G1 E0.80000 F2100.000
G1 F1200.000
G1 X25.451 Y95.084 E0.69975
G1 X26.205 Y95.084 E0.02365
G1 X26.205 Y117.232 E0.69443
G1 X26.959 Y117.232 E0.02365
G1 X26.959 Y95.084 E0.69443
G1 X27.713 Y95.084 E0.02365
G1 X27.713 Y117.232 E0.69443
G1 X28.468 Y117.232 E0.02365
G1 X28.468 Y95.084 E0.69443
G1 X29.222 Y95.084 E0.02365
G1 X29.222 Y117.401 E0.69975
;WIPE_START
G1 F8640.000
G1 X29.222 Y114.110 E-0.76000
;WIPE_END
G1 E-0.04000 F2100.000
G1 Z0.600 F10800.000
G1 X31.484 Y117.401
G1 Z0.200
G1 E0.80000 F2100.000
G1 F1200.000
G1 X31.484 Y95.084 E0.69975
G1 X32.238 Y95.084 E0.02365
G1 X32.238 Y117.401 E0.69975
;WIPE_START
G1 F8640.000
G1 X32.238 Y114.110 E-0.76000
;WIPE_END
G1 E-0.04000 F2100.000
G1 Z0.600 F10800.000
G1 X97.096 Y119.717
G1 Z0.200
G1 E0.80000 F2100.000
G1 F1200.000
G1 X97.096 Y90.453 E0.91756
G1 X97.850 Y90.453 E0.02365
G1 X97.850 Y119.547 E0.91224
G1 X98.604 Y119.547 E0.02365
G1 X98.604 Y90.453 E0.91224
G1 X99.359 Y90.453 E0.02365
G1 X99.359 Y119.547 E0.91224
G1 X100.113 Y119.547 E0.02365
G1 X100.113 Y90.453 E0.91224
G1 X100.867 Y90.453 E0.02365
G1 X100.867 Y119.547 E0.91224
G1 X101.621 Y119.547 E0.02365
G1 X101.621 Y90.453 E0.91224
G1 X102.375 Y90.453 E0.02365
G1 X102.375 Y119.547 E0.91224
G1 X103.129 Y119.547 E0.02365
G1 X103.129 Y90.453 E0.91224
G1 X103.884 Y90.453 E0.02365
G1 X103.884 Y119.547 E0.91224
G1 X104.638 Y119.547 E0.02365
G1 X104.638 Y90.453 E0.91224
G1 X105.392 Y90.453 E0.02365
G1 X105.392 Y119.547 E0.91224
G1 X106.146 Y119.547 E0.02365
G1 X106.146 Y90.453 E0.91224
G1 X106.900 Y90.453 E0.02365
G1 X106.900 Y119.717 E0.91756
G1 X152.904 Y119.717 F10800.000
G1 F1200.000
G1 X152.904 Y90.453 E0.91756
G1 X152.150 Y90.453 E0.02365
G1 X152.150 Y119.547 E0.91224
G1 X151.396 Y119.547 E0.02365
G1 X151.396 Y90.453 E0.91224
G1 X150.641 Y90.453 E0.02365
G1 X150.641 Y119.547 E0.91224
G1 X149.887 Y119.547 E0.02365
G1 X149.887 Y90.453 E0.91224
G1 X149.133 Y90.453 E0.02365
G1 X149.133 Y119.547 E0.91224
G1 X148.379 Y119.547 E0.02365
G1 X148.379 Y90.453 E0.91224
G1 X147.625 Y90.453 E0.02365
G1 X147.625 Y119.547 E0.91224
G1 X146.871 Y119.547 E0.02365
G1 X146.871 Y90.453 E0.91224
G1 X146.116 Y90.453 E0.02365
G1 X146.116 Y119.547 E0.91224
G1 X145.362 Y119.547 E0.02365
G1 X145.362 Y90.453 E0.91224
M73 Q0 S652
G1 X144.608 Y90.453 E0.02365
G1 X144.608 Y119.547 E0.91224
M73 P0 R639
G1 X143.854 Y119.547 E0.02365
G1 X143.854 Y90.453 E0.91224
G1 X143.100 Y90.453 E0.02365
G1 X143.100 Y119.547 E0.91224
G1 X142.346 Y119.547 E0.02365
G1 X142.346 Y111.293 E0.25880
G1 X141.591 Y111.293 E0.02365
G1 X141.591 Y119.547 E0.25880
G1 X140.837 Y119.547 E0.02365
G1 X140.837 Y111.293 E0.25880
G1 X140.083 Y111.293 E0.02365
G1 X140.083 Y119.547 E0.25880
G1 X139.329 Y119.547 E0.02365
G1 X139.329 Y111.293 E0.25880
G1 X138.575 Y111.293 E0.02365
G1 X138.575 Y119.547 E0.25880
G1 X137.821 Y119.547 E0.02365
G1 X137.821 Y111.293 E0.25880
G1 X137.067 Y111.293 E0.02365
G1 X137.067 Y119.547 E0.25880
G1 X136.312 Y119.547 E0.02365
G1 X136.312 Y111.293 E0.25880
G1 X135.558 Y111.293 E0.02365
G1 X135.558 Y119.547 E0.25880
G1 X134.804 Y119.547 E0.02365
G1 X134.804 Y111.293 E0.25880
G1 X134.050 Y111.293 E0.02365
G1 X134.050 Y119.547 E0.25880
G1 X133.296 Y119.547 E0.02365
G1 X133.296 Y111.293 E0.25880
G1 X132.542 Y111.293 E0.02365
G1 X132.542 Y119.547 E0.25880
G1 X131.787 Y119.547 E0.02365
G1 X131.787 Y111.293 E0.25880
G1 X131.033 Y111.293 E0.02365
G1 X131.033 Y119.547 E0.25880
G1 X130.279 Y119.547 E0.02365
G1 X130.279 Y111.293 E0.25880
G1 X129.525 Y111.293 E0.02365
G1 X129.525 Y119.547 E0.25880
G1 X128.771 Y119.547 E0.02365
G1 X128.771 Y111.293 E0.25880
G1 X128.017 Y111.293 E0.02365
G1 X128.017 Y119.547 E0.25880
G1 X127.262 Y119.547 E0.02365
G1 X127.262 Y111.293 E0.25880
G1 X126.508 Y111.293 E0.02365
G1 X126.508 Y119.547 E0.25880
G1 X125.754 Y119.547 E0.02365
G1 X125.754 Y111.293 E0.25880
G1 X125.000 Y111.293 E0.02365
G1 X125.000 Y119.547 E0.25880
G1 X124.246 Y119.547 E0.02365
G1 X124.246 Y111.293 E0.25880
G1 X123.492 Y111.293 E0.02365
G1 X123.492 Y119.547 E0.25880
G1 X122.738 Y119.547 E0.02365
G1 X122.738 Y111.293 E0.25880
G1 X121.983 Y111.293 E0.02365
G1 X121.983 Y119.547 E0.25880
G1 X121.229 Y119.547 E0.02365
G1 X121.229 Y111.293 E0.25880
G1 X120.475 Y111.293 E0.02365
G1 X120.475 Y119.547 E0.25880
G1 X119.721 Y119.547 E0.02365
G1 X119.721 Y111.293 E0.25880
G1 X118.967 Y111.293 E0.02365
G1 X118.967 Y119.547 E0.25880
G1 X118.213 Y119.547 E0.02365
G1 X118.213 Y111.293 E0.25880
G1 X117.458 Y111.293 E0.02365
G1 X117.458 Y119.547 E0.25880
G1 X116.704 Y119.547 E0.02365
G1 X116.704 Y111.293 E0.25880
G1 X115.950 Y111.293 E0.02365
G1 X115.950 Y119.547 E0.25880
G1 X115.196 Y119.547 E0.02365
G1 X115.196 Y111.293 E0.25880
G1 X114.442 Y111.293 E0.02365
G1 X114.442 Y119.547 E0.25880
G1 X113.688 Y119.547 E0.02365
G1 X113.688 Y111.293 E0.25880
G1 X112.933 Y111.293 E0.02365
G1 X112.933 Y119.547 E0.25880
G1 X112.179 Y119.547 E0.02365
G1 X112.179 Y111.293 E0.25880
G1 X111.425 Y111.293 E0.02365
G1 X111.425 Y119.547 E0.25880
G1 X110.671 Y119.547 E0.02365
G1 X110.671 Y111.293 E0.25880
G1 X109.917 Y111.293 E0.02365
G1 X109.917 Y119.547 E0.25880
G1 X109.163 Y119.547 E0.02365
G1 X109.163 Y111.293 E0.25880
G1 X108.409 Y111.293 E0.02365
G1 X108.409 Y119.547 E0.25880
G1 X107.654 Y119.547 E0.02365
G1 X107.654 Y111.293 E0.25880
G1 X107.129 Y111.293 E0.01648
G1 X107.129 Y98.707 E0.39464
G1 X107.654 Y98.707 E0.01648
G1 X107.654 Y90.453 E0.25880
G1 X108.409 Y90.453 E0.02365
G1 X108.409 Y98.707 E0.25880
G1 X109.163 Y98.707 E0.02365
G1 X109.163 Y90.453 E0.25880
G1 X109.917 Y90.453 E0.02365
G1 X109.917 Y98.707 E0.25880
G1 X110.671 Y98.707 E0.02365
G1 X110.671 Y90.453 E0.25880
G1 X111.425 Y90.453 E0.02365
G1 X111.425 Y98.707 E0.25880
G1 X112.179 Y98.707 E0.02365
G1 X112.179 Y90.453 E0.25880
G1 X112.933 Y90.453 E0.02365
G1 X112.933 Y98.707 E0.25880
G1 X113.688 Y98.707 E0.02365
G1 X113.688 Y90.453 E0.25880
G1 X114.442 Y90.453 E0.02365
G1 X114.442 Y98.707 E0.25880
G1 X115.196 Y98.707 E0.02365
G1 X115.196 Y90.453 E0.25880
G1 X115.950 Y90.453 E0.02365
G1 X115.950 Y98.707 E0.25880
G1 X116.704 Y98.707 E0.02365
G1 X116.704 Y90.453 E0.25880
G1 X117.458 Y90.453 E0.02365
G1 X117.458 Y98.707 E0.25880
G1 X118.213 Y98.707 E0.02365
G1 X118.213 Y90.453 E0.25880
G1 X118.967 Y90.453 E0.02365
G1 X118.967 Y98.707 E0.25880
G1 X119.721 Y98.707 E0.02365
G1 X119.721 Y90.453 E0.25880
G1 X120.475 Y90.453 E0.02365
G1 X120.475 Y98.707 E0.25880
G1 X121.229 Y98.707 E0.02365
G1 X121.229 Y90.453 E0.25880
G1 X121.983 Y90.453 E0.02365
G1 X121.983 Y98.707 E0.25880
G1 X122.738 Y98.707 E0.02365
G1 X122.738 Y90.453 E0.25880
G1 X123.492 Y90.453 E0.02365
G1 X123.492 Y98.707 E0.25880
G1 X124.246 Y98.707 E0.02365
G1 X124.246 Y90.453 E0.25880
G1 X125.000 Y90.453 E0.02365
G1 X125.000 Y98.707 E0.25880
G1 X125.754 Y98.707 E0.02365
G1 X125.754 Y90.453 E0.25880
G1 X126.508 Y90.453 E0.02365
G1 X126.508 Y98.707 E0.25880
G1 X127.262 Y98.707 E0.02365
G1 X127.262 Y90.453 E0.25880
G1 X128.017 Y90.453 E0.02365
G1 X128.017 Y98.707 E0.25880
G1 X128.771 Y98.707 E0.02365
G1 X128.771 Y90.453 E0.25880
G1 X129.525 Y90.453 E0.02365
G1 X129.525 Y98.707 E0.25880
G1 X130.279 Y98.707 E0.02365
G1 X130.279 Y90.453 E0.25880
G1 X131.033 Y90.453 E0.02365
G1 X131.033 Y98.707 E0.25880
G1 X131.787 Y98.707 E0.02365
G1 X131.787 Y90.453 E0.25880
G1 X132.542 Y90.453 E0.02365
G1 X132.542 Y98.707 E0.25880
G1 X133.296 Y98.707 E0.02365
G1 X133.296 Y90.453 E0.25880
G1 X134.050 Y90.453 E0.02365
G1 X134.050 Y98.707 E0.25880
G1 X134.804 Y98.707 E0.02365
G1 X134.804 Y90.453 E0.25880
G1 X135.558 Y90.453 E0.02365
G1 X135.558 Y98.707 E0.25880
G1 X136.312 Y98.707 E0.02365
G1 X136.312 Y90.453 E0.25880
G1 X137.067 Y90.453 E0.02365
G1 X137.067 Y98.707 E0.25880
G1 X137.821 Y98.707 E0.02365
G1 X137.821 Y90.453 E0.25880
G1 X138.575 Y90.453 E0.02365
G1 X138.575 Y98.707 E0.25880
G1 X139.329 Y98.707 E0.02365
G1 X139.329 Y90.453 E0.25880
G1 X140.083 Y90.453 E0.02365
G1 X140.083 Y98.707 E0.25880
G1 X140.837 Y98.707 E0.02365
G1 X140.837 Y90.453 E0.25880
G1 X141.591 Y90.453 E0.02365
G1 X141.591 Y98.707 E0.25880
G1 X142.346 Y98.707 E0.02365
G1 X142.346 Y90.283 E0.26412
;WIPE_START
G1 F8640.000
G1 X142.346 Y93.574 E-0.76000
;WIPE_END
G1 E-0.04000 F2100.000
G1 Z0.600 F10800.000
G1 X217.762 Y117.401
G1 Z0.200
G1 E0.80000 F2100.000
G1 F1200.000
G1 X217.762 Y95.084 E0.69975
G1 X218.516 Y95.084 E0.02365
G1 X218.516 Y117.401 E0.69975
;WIPE_START
G1 F8640.000
G1 X218.516 Y114.110 E-0.76000
;WIPE_END
G1 E-0.04000 F2100.000
G1 Z0.600 F10800.000
G1 X220.778 Y117.401
G1 Z0.200
G1 E0.80000 F2100.000
G1 F1200.000
G1 X220.778 Y95.084 E0.69975
G1 X221.532 Y95.084 E0.02365
G1 X221.532 Y117.232 E0.69443
G1 X222.287 Y117.232 E0.02365
G1 X222.287 Y95.084 E0.69443
G1 X223.041 Y95.084 E0.02365
G1 X223.041 Y117.232 E0.69443
G1 X223.795 Y117.232 E0.02365
G1 X223.795 Y95.084 E0.69443
G1 X224.549 Y95.084 E0.02365
G1 X224.549 Y117.401 E0.69975
;WIPE_START
M73 Q0 S651
G1 F8640.000
G1 X224.549 Y114.110 E-0.76000
;WIPE_END
G1 E-0.04000 F2100.000
G1 Z0.600 F10800.000
G1 X167.233 Y12.681
G1 Z0.200
G1 E0.80000 F2100.000
G1 F1200.000
G1 X167.233 Y11.489 E0.03739
M73 P0 R638
G1 X166.479 Y11.489 E0.02365
G1 X166.479 Y12.511 E0.03207
G1 X165.725 Y12.511 E0.02365
G1 X165.725 Y11.489 E0.03207
G1 X164.970 Y11.489 E0.02365
G1 X164.970 Y12.511 E0.03207
G1 X164.216 Y12.511 E0.02365
G1 X164.216 Y11.489 E0.03207
G1 X163.462 Y11.489 E0.02365
