; generated by PrusaSlicer 2.3.3+arm64 on 2021-12-11 at 18:29:43 UTC

; 

; external perimeters extrusion width = 0.60mm
; perimeters extrusion width = 0.50mm
; infill extrusion width = 0.50mm
; solid infill extrusion width = 0.50mm
; top infill extrusion width = 0.45mm
; support material extrusion width = 0.38mm
; first layer extrusion width = 0.42mm

M73 P0 R266
M73 Q0 S268
M201 X1000 Y1000 Z200 E5000 ; sets maximum accelerations, mm/sec^2
M203 X200 Y200 Z12 E120 ; sets maximum feedrates, mm/sec
M204 P1250 R1250 T1250 ; sets acceleration (P, T) and retract acceleration (R), mm/sec^2
M205 X8.00 Y8.00 Z0.40 E4.50 ; sets the jerk limits, mm/sec
M205 S0 T0 ; sets the minimum extruding and travel feed rate, mm/sec
M107
;TYPE:Custom
M862.3 P "MK3S" ; printer model check
M862.1 P0.4 ; nozzle diameter check
M115 U3.10.0 ; tell printer latest fw version
G90 ; use absolute coordinates
M83 ; extruder relative mode
M104 S215 ; set extruder temp
M140 S60 ; set bed temp
M190 S60 ; wait for bed temp
M109 S215 ; wait for extruder temp
G28 W ; home all without mesh bed level
G80 ; mesh bed leveling
G1 Y-3.0 F1000.0 ; go outside print area
G92 E0.0
G1 X60.0 E9.0 F1000.0 ; intro line
M73 P0 R265
G1 X100.0 E12.5 F1000.0 ; intro line
G92 E0.0
M221 S95

; Don't change E values below. Excessive value can damage the printer.

M907 E538 ; set extruder motor current
G21 ; set units to millimeters
G90 ; use absolute coordinates
M83 ; use relative distances for extrusion
M900 K0.05 ; Filament gcode LA 1.5
M900 K30 ; Filament gcode LA 1.0
;LAYER_CHANGE
;Z:0.2
;HEIGHT:0.2
;BEFORE_LAYER_CHANGE
G92 E0.0
;0.2


G1 E-0.80000 F2100.000
G1 Z0.400 F10800.000
;AFTER_LAYER_CHANGE
;0.2
G1 X27.445 Y6.308
G1 Z0.200
G1 E0.80000 F2100.000
M204 S1000
;TYPE:Skirt
;WIDTH:0.42
G1 F1200.000
G1 X28.354 Y6.123 E0.02907
G1 X221.640 Y6.123 E6.06035
G1 X222.514 Y6.291 E0.02790
G1 X223.267 Y6.771 E0.02802
G1 X223.789 Y7.492 E0.02790
G1 X224.009 Y8.354 E0.02790
G1 X226.926 Y92.747 E2.64766
G1 X226.925 Y115.162 E0.70280
G1 X224.011 Y201.595 E2.71160
G1 X223.816 Y202.448 E0.02743
G1 X223.325 Y203.172 E0.02743
G1 X222.550 Y203.694 E0.02931
G1 X221.636 Y203.877 E0.02922
G1 X28.356 Y203.877 E6.06015
G1 X27.458 Y203.698 E0.02872
G1 X26.692 Y203.189 E0.02884
G1 X26.189 Y202.459 E0.02778
G1 X25.989 Y201.596 E0.02778
G1 X23.074 Y115.086 E2.71402
G1 X23.075 Y92.688 E0.70225
G1 X25.989 Y8.399 E2.64442
G1 X26.185 Y7.550 E0.02731
G1 X26.674 Y6.829 E0.02731
G1 X27.395 Y6.341 E0.02731
; printing object Body2.stl id:0 copy 0
;WIPE_START
G1 F8640.000
G1 X28.354 Y6.123 E-0.22696
G1 X30.662 Y6.123 E-0.53304
;WIPE_END
G1 E-0.04000 F2100.000
G1 Z0.600 F10800.000
G1 X27.713 Y115.086
G1 Z0.200
G1 E0.80000 F2100.000
;TYPE:Support material
G1 F1200.000
G1 X27.713 Y92.768 E0.69975
G1 X26.959 Y92.768 E0.02365
G1 X26.959 Y114.916 E0.69443
G1 X26.205 Y114.916 E0.02365
G1 X26.205 Y92.768 E0.69443
G1 X25.451 Y92.768 E0.02365
G1 X25.451 Y115.086 E0.69975
;WIPE_START
M73 Q0 S267
G1 F8640.000
G1 X25.451 Y111.794 E-0.76000
;WIPE_END
G1 E-0.04000 F2100.000
G1 Z0.600 F10800.000
G1 X222.287 Y115.086
G1 Z0.200
G1 E0.80000 F2100.000
G1 F1200.000
G1 X222.287 Y92.768 E0.69975
G1 X223.041 Y92.768 E0.02365
G1 X223.041 Y114.916 E0.69443
G1 X223.795 Y114.916 E0.02365
G1 X223.795 Y92.768 E0.69443
G1 X224.549 Y92.768 E0.02365
G1 X224.549 Y115.086 E0.69975
;WIPE_START
G1 F8640.000
G1 X224.549 Y111.794 E-0.76000
;WIPE_END
G1 E-0.04000 F2100.000
G1 Z0.600 F10800.000
G1 X117.609 Y99.213
G1 Z0.200
G1 E0.80000 F2100.000
;TYPE:Perimeter
G1 F1200.000
G1 X134.183 Y99.213 E0.51967
G1 X134.183 Y120.787 E0.67644
M73 P0 R264
G1 X117.609 Y120.787 E0.51967
G1 X117.609 Y99.273 E0.67456
G1 X117.986 Y99.590 F10800.000
;TYPE:External perimeter
G1 F1200.000
G1 X133.806 Y99.590 E0.49602
G1 X133.806 Y120.410 E0.65280
G1 X117.986 Y120.410 E0.49602
G1 X117.986 Y99.650 E0.65092
G1 X117.900 Y99.199 F10800.000
;WIPE_START
G1 F8640.000
G1 X121.277 Y99.638 E-0.76000
;WIPE_END
G1 E-0.04000 F2100.000
G1 Z0.600 F10800.000
G1 X29.151 Y9.287
G1 Z0.200
G1 E0.80000 F2100.000
;TYPE:Perimeter
G1 F1200.000
G1 X220.849 Y9.287 E6.01055
G1 X220.849 Y200.713 E6.00202
G1 X29.151 Y200.713 E6.01055
G1 X29.151 Y9.347 E6.00014
G1 X28.774 Y8.910 F10800.000
;TYPE:External perimeter
G1 F1200.000
G1 X221.226 Y8.910 E6.03420
M73 Q0 S266
G1 X221.226 Y201.090 E6.02567
M73 P0 R263
G1 X28.774 Y201.090 E6.03420
G1 X28.774 Y8.970 E6.02379
G1 X29.160 Y9.013 F10800.000
;WIPE_START
G1 F8640.000
G1 X32.065 Y8.969 E-0.76000
;WIPE_END
G1 E-0.04000 F2100.000
G1 Z0.600 F10800.000
G1 X219.973 Y9.400
G1 Z0.200
G1 E0.80000 F2100.000
;TYPE:Solid infill
;WIDTH:0.420385
G1 F1200.000
G1 X220.566 Y9.994 E0.02634
G1 X220.566 Y10.527 E0.01675
G1 X219.609 Y9.570 E0.04250
G1 X219.075 Y9.570 E0.01675
G1 X220.566 Y11.061 E0.06620
G1 X220.566 Y11.595 E0.01675
G1 X218.541 Y9.570 E0.08989
G1 X218.007 Y9.570 E0.01675
G1 X220.566 Y12.129 E0.11359
G1 X220.566 Y12.663 E0.01675
G1 X217.473 Y9.570 E0.13728
G1 X216.940 Y9.570 E0.01675
G1 X220.566 Y13.196 E0.16097
G1 X220.566 Y13.730 E0.01675
G1 X216.406 Y9.570 E0.18467
G1 X215.872 Y9.570 E0.01675
G1 X220.566 Y14.264 E0.20836
G1 X220.566 Y14.798 E0.01675
G1 X215.338 Y9.570 E0.23206
G1 X214.804 Y9.570 E0.01675
G1 X220.566 Y15.332 E0.25575
G1 X220.566 Y15.866 E0.01675
G1 X214.270 Y9.570 E0.27945
G1 X213.737 Y9.570 E0.01675
G1 X220.566 Y16.399 E0.30314
G1 X220.566 Y16.933 E0.01675
G1 X213.203 Y9.570 E0.32684
G1 X212.669 Y9.570 E0.01675
G1 X220.566 Y17.467 E0.35053
G1 X220.566 Y18.001 E0.01675
G1 X212.135 Y9.570 E0.37422
G1 X211.601 Y9.570 E0.01675
G1 X220.566 Y18.535 E0.39792
G1 X220.566 Y19.068 E0.01675
G1 X211.068 Y9.570 E0.42161
G1 X210.534 Y9.570 E0.01675
G1 X220.566 Y19.602 E0.44531
G1 X220.566 Y20.136 E0.01675
G1 X210.000 Y9.570 E0.46900
G1 X209.466 Y9.570 E0.01675
G1 X220.566 Y20.670 E0.49270
G1 X220.566 Y21.204 E0.01675
G1 X208.932 Y9.570 E0.51639
G1 X208.398 Y9.570 E0.01675
G1 X220.566 Y21.738 E0.54009
G1 X220.566 Y22.271 E0.01675
G1 X207.865 Y9.570 E0.56378
M73 Q1 S266
G1 X207.331 Y9.570 E0.01675
G1 X220.566 Y22.805 E0.58748
M73 P1 R263
G1 X220.566 Y23.339 E0.01675
G1 X206.797 Y9.570 E0.61117
G1 X206.263 Y9.570 E0.01675
G1 X220.566 Y23.873 E0.63486
G1 X220.566 Y24.407 E0.01675
G1 X205.729 Y9.570 E0.65856
G1 X205.196 Y9.570 E0.01675
G1 X220.566 Y24.940 E0.68225
G1 X220.566 Y25.474 E0.01675
G1 X204.662 Y9.570 E0.70595
G1 X204.128 Y9.570 E0.01675
G1 X220.566 Y26.008 E0.72964
G1 X220.566 Y26.542 E0.01675
G1 X203.594 Y9.570 E0.75334
G1 X203.060 Y9.570 E0.01675
G1 X220.566 Y27.076 E0.77703
G1 X220.566 Y27.610 E0.01675
G1 X202.526 Y9.570 E0.80073
M73 Q1 S265
G1 X201.993 Y9.570 E0.01675
G1 X220.566 Y28.143 E0.82442
G1 X220.566 Y28.677 E0.01675
G1 X201.459 Y9.570 E0.84811
G1 X200.925 Y9.570 E0.01675
G1 X220.566 Y29.211 E0.87181
G1 X220.566 Y29.745 E0.01675
G1 X200.391 Y9.570 E0.89550
G1 X199.857 Y9.570 E0.01675
G1 X220.566 Y30.279 E0.91920
G1 X220.566 Y30.812 E0.01675
G1 X199.324 Y9.570 E0.94289
G1 X198.790 Y9.570 E0.01675
G1 X220.566 Y31.346 E0.96659
G1 X220.566 Y31.880 E0.01675
G1 X198.256 Y9.570 E0.99028
M73 P1 R262
G1 X197.722 Y9.570 E0.01675
G1 X220.566 Y32.414 E1.01398
G1 X220.566 Y32.948 E0.01675
G1 X197.188 Y9.570 E1.03767
G1 X196.654 Y9.570 E0.01675
G1 X220.566 Y33.482 E1.06137
G1 X220.566 Y34.015 E0.01675
G1 X196.121 Y9.570 E1.08506
G1 X195.587 Y9.570 E0.01675
G1 X220.566 Y34.549 E1.10875
G1 X220.566 Y35.083 E0.01675
G1 X195.053 Y9.570 E1.13245
G1 X194.519 Y9.570 E0.01675
G1 X220.566 Y35.617 E1.15614
G1 X220.566 Y36.151 E0.01675
G1 X193.985 Y9.570 E1.17984
G1 X193.452 Y9.570 E0.01675
G1 X220.566 Y36.684 E1.20353
G1 X220.566 Y37.218 E0.01675
G1 X192.918 Y9.570 E1.22723
G1 X192.384 Y9.570 E0.01675
G1 X220.566 Y37.752 E1.25092
G1 X220.566 Y38.286 E0.01675
G1 X191.850 Y9.570 E1.27462
G1 X191.316 Y9.570 E0.01675
G1 X220.566 Y38.820 E1.29831
G1 X220.566 Y39.353 E0.01675
G1 X190.783 Y9.570 E1.32200
G1 X190.249 Y9.570 E0.01675
G1 X220.566 Y39.887 E1.34570
G1 X220.566 Y40.421 E0.01675
G1 X189.715 Y9.570 E1.36939
G1 X189.181 Y9.570 E0.01675
G1 X220.566 Y40.955 E1.39309
G1 X220.566 Y41.489 E0.01675
G1 X188.647 Y9.570 E1.41678
G1 X188.113 Y9.570 E0.01675
G1 X220.566 Y42.023 E1.44048
G1 X220.566 Y42.556 E0.01675
G1 X187.580 Y9.570 E1.46417
G1 X187.046 Y9.570 E0.01675
G1 X220.566 Y43.090 E1.48787
G1 X220.566 Y43.624 E0.01675
G1 X186.512 Y9.570 E1.51156
G1 X185.978 Y9.570 E0.01675
G1 X220.566 Y44.158 E1.53526
G1 X220.566 Y44.692 E0.01675
M73 Q1 S264
G1 X185.444 Y9.570 E1.55895
G1 X184.911 Y9.570 E0.01675
G1 X220.566 Y45.225 E1.58264
G1 X220.566 Y45.759 E0.01675
G1 X184.377 Y9.570 E1.60634
G1 X183.843 Y9.570 E0.01675
G1 X220.566 Y46.293 E1.63003
G1 X220.566 Y46.827 E0.01675
G1 X183.309 Y9.570 E1.65373
M73 P1 R261
G1 X182.775 Y9.570 E0.01675
G1 X220.566 Y47.361 E1.67742
G1 X220.566 Y47.895 E0.01675
G1 X182.241 Y9.570 E1.70112
G1 X181.708 Y9.570 E0.01675
G1 X220.566 Y48.428 E1.72481
G1 X220.566 Y48.962 E0.01675
G1 X181.174 Y9.570 E1.74851
G1 X180.640 Y9.570 E0.01675
G1 X220.566 Y49.496 E1.77220
G1 X220.566 Y50.030 E0.01675
G1 X180.106 Y9.570 E1.79589
G1 X179.572 Y9.570 E0.01675
G1 X220.566 Y50.564 E1.81959
G1 X220.566 Y51.097 E0.01675
G1 X179.039 Y9.570 E1.84328
G1 X178.505 Y9.570 E0.01675
G1 X220.566 Y51.631 E1.86698
G1 X220.566 Y52.165 E0.01675
G1 X177.971 Y9.570 E1.89067
G1 X177.437 Y9.570 E0.01675
G1 X220.566 Y52.699 E1.91437
G1 X220.566 Y53.233 E0.01675
G1 X176.903 Y9.570 E1.93806
G1 X176.369 Y9.570 E0.01675
G1 X220.566 Y53.767 E1.96176
G1 X220.566 Y54.300 E0.01675
G1 X175.836 Y9.570 E1.98545
G1 X175.302 Y9.570 E0.01675
G1 X220.566 Y54.834 E2.00914
G1 X220.566 Y55.368 E0.01675
G1 X174.768 Y9.570 E2.03284
M73 Q1 S263
G1 X174.234 Y9.570 E0.01675
G1 X220.566 Y55.902 E2.05653
G1 X220.566 Y56.436 E0.01675
G1 X173.700 Y9.570 E2.08023
G1 X173.167 Y9.570 E0.01675
G1 X220.566 Y56.969 E2.10392
G1 X220.566 Y57.503 E0.01675
G1 X172.633 Y9.570 E2.12762
M73 P1 R260
G1 X172.099 Y9.570 E0.01675
G1 X220.566 Y58.037 E2.15131
G1 X220.566 Y58.571 E0.01675
G1 X171.565 Y9.570 E2.17501
G1 X171.031 Y9.570 E0.01675
G1 X220.566 Y59.105 E2.19870
G1 X220.566 Y59.638 E0.01675
G1 X170.498 Y9.570 E2.22240
G1 X169.964 Y9.570 E0.01675
G1 X220.566 Y60.172 E2.24609
M73 P2 R260
M73 Q2 S263
G1 X220.566 Y60.706 E0.01675
G1 X169.430 Y9.570 E2.26978
G1 X168.896 Y9.570 E0.01675
G1 X220.566 Y61.240 E2.29348
G1 X220.566 Y61.774 E0.01675
G1 X168.362 Y9.570 E2.31717
G1 X167.828 Y9.570 E0.01675
G1 X220.566 Y62.308 E2.34087
G1 X220.566 Y62.841 E0.01675
G1 X167.295 Y9.570 E2.36456
G1 X166.761 Y9.570 E0.01675
G1 X220.566 Y63.375 E2.38826
G1 X220.566 Y63.909 E0.01675
G1 X166.227 Y9.570 E2.41195
G1 X165.693 Y9.570 E0.01675
G1 X220.566 Y64.443 E2.43565
M73 Q2 S262
G1 X220.566 Y64.977 E0.01675
G1 X165.159 Y9.570 E2.45934
G1 X164.626 Y9.570 E0.01675
G1 X220.566 Y65.510 E2.48303
G1 X220.566 Y66.044 E0.01675
G1 X164.092 Y9.570 E2.50673
M73 P2 R259
G1 X163.558 Y9.570 E0.01675
G1 X220.566 Y66.578 E2.53042
G1 X220.566 Y67.112 E0.01675
G1 X163.024 Y9.570 E2.55412
G1 X162.490 Y9.570 E0.01675
G1 X220.566 Y67.646 E2.57781
G1 X220.566 Y68.180 E0.01675
G1 X161.956 Y9.570 E2.60151
G1 X161.423 Y9.570 E0.01675
G1 X220.566 Y68.713 E2.62520
G1 X220.566 Y69.247 E0.01675
G1 X160.889 Y9.570 E2.64890
G1 X160.355 Y9.570 E0.01675
G1 X220.566 Y69.781 E2.67259
G1 X220.566 Y70.315 E0.01675
G1 X159.821 Y9.570 E2.69629
G1 X159.287 Y9.570 E0.01675
G1 X220.566 Y70.849 E2.71998
G1 X220.566 Y71.382 E0.01675
G1 X158.754 Y9.570 E2.74367
G1 X158.220 Y9.570 E0.01675
G1 X220.566 Y71.916 E2.76737
M73 Q2 S261
G1 X220.566 Y72.450 E0.01675
G1 X157.686 Y9.570 E2.79106
G1 X157.152 Y9.570 E0.01675
G1 X220.566 Y72.984 E2.81476
G1 X220.566 Y73.518 E0.01675
G1 X156.618 Y9.570 E2.83845
M73 P2 R258
G1 X156.084 Y9.570 E0.01675
G1 X220.566 Y74.052 E2.86215
G1 X220.566 Y74.585 E0.01675
G1 X155.551 Y9.570 E2.88584
G1 X155.017 Y9.570 E0.01675
G1 X220.566 Y75.119 E2.90954
G1 X220.566 Y75.653 E0.01675
G1 X154.483 Y9.570 E2.93323
G1 X153.949 Y9.570 E0.01675
G1 X220.566 Y76.187 E2.95692
G1 X220.566 Y76.721 E0.01675
G1 X153.415 Y9.570 E2.98062
G1 X152.882 Y9.570 E0.01675
G1 X220.566 Y77.254 E3.00431
G1 X220.566 Y77.788 E0.01675
G1 X152.348 Y9.570 E3.02801
G1 X151.814 Y9.570 E0.01675
G1 X220.566 Y78.322 E3.05170
G1 X220.566 Y78.856 E0.01675
G1 X151.280 Y9.570 E3.07540
M73 Q2 S260
G1 X150.746 Y9.570 E0.01675
G1 X220.566 Y79.390 E3.09909
G1 X220.566 Y79.924 E0.01675
G1 X150.212 Y9.570 E3.12279
M73 P3 R257
M73 Q3 S260
G1 X149.679 Y9.570 E0.01675
G1 X220.566 Y80.457 E3.14648
G1 X220.566 Y80.991 E0.01675
G1 X149.145 Y9.570 E3.17018
G1 X148.611 Y9.570 E0.01675
G1 X220.566 Y81.525 E3.19387
G1 X220.566 Y82.059 E0.01675
G1 X148.077 Y9.570 E3.21756
G1 X147.543 Y9.570 E0.01675
G1 X220.566 Y82.593 E3.24126
G1 X220.566 Y83.126 E0.01675
G1 X147.010 Y9.570 E3.26495
G1 X146.476 Y9.570 E0.01675
G1 X220.566 Y83.660 E3.28865
G1 X220.566 Y84.194 E0.01675
G1 X145.942 Y9.570 E3.31234
G1 X145.408 Y9.570 E0.01675
G1 X220.566 Y84.728 E3.33604
G1 X220.566 Y85.262 E0.01675
G1 X144.874 Y9.570 E3.35973
M73 Q3 S259
G1 X144.341 Y9.570 E0.01675
G1 X220.566 Y85.795 E3.38343
G1 X220.566 Y86.329 E0.01675
G1 X143.807 Y9.570 E3.40712
M73 P3 R256
G1 X143.273 Y9.570 E0.01675
G1 X220.566 Y86.863 E3.43081
G1 X220.566 Y87.397 E0.01675
G1 X142.739 Y9.570 E3.45451
G1 X142.205 Y9.570 E0.01675
G1 X220.566 Y87.931 E3.47820
G1 X220.566 Y88.465 E0.01675
G1 X141.671 Y9.570 E3.50190
G1 X141.138 Y9.570 E0.01675
G1 X220.566 Y88.998 E3.52559
G1 X220.566 Y89.532 E0.01675
G1 X140.604 Y9.570 E3.54929
G1 X140.070 Y9.570 E0.01675
G1 X220.566 Y90.066 E3.57298
G1 X220.566 Y90.600 E0.01675
G1 X139.536 Y9.570 E3.59668
M73 Q3 S258
G1 X139.002 Y9.570 E0.01675
G1 X220.566 Y91.134 E3.62037
G1 X220.566 Y91.667 E0.01675
G1 X138.469 Y9.570 E3.64407
M73 P3 R255
G1 X137.935 Y9.570 E0.01675
G1 X220.566 Y92.201 E3.66776
G1 X220.566 Y92.735 E0.01675
G1 X137.401 Y9.570 E3.69145
G1 X136.867 Y9.570 E0.01675
G1 X220.566 Y93.269 E3.71515
G1 X220.566 Y93.803 E0.01675
G1 X136.333 Y9.570 E3.73884
G1 X135.799 Y9.570 E0.01675
G1 X220.566 Y94.337 E3.76254
G1 X220.566 Y94.870 E0.01675
G1 X135.266 Y9.570 E3.78623
M73 P4 R255
G1 X134.732 Y9.570 E0.01675
G1 X220.566 Y95.404 E3.80993
M73 Q4 S258
G1 X220.566 Y95.938 E0.01675
G1 X134.198 Y9.570 E3.83362
M73 Q4 S257
G1 X133.664 Y9.570 E0.01675
G1 X220.566 Y96.472 E3.85732
G1 X220.566 Y97.006 E0.01675
G1 X133.130 Y9.570 E3.88101
M73 P4 R254
G1 X132.597 Y9.570 E0.01675
G1 X220.566 Y97.539 E3.90470
G1 X220.566 Y98.073 E0.01675
G1 X132.063 Y9.570 E3.92840
G1 X131.529 Y9.570 E0.01675
G1 X220.566 Y98.607 E3.95209
G1 X220.566 Y99.141 E0.01675
G1 X130.995 Y9.570 E3.97579
G1 X130.461 Y9.570 E0.01675
G1 X220.566 Y99.675 E3.99948
G1 X220.566 Y100.209 E0.01675
G1 X129.927 Y9.570 E4.02318
G1 X129.394 Y9.570 E0.01675
G1 X220.566 Y100.742 E4.04687
G1 X220.566 Y101.276 E0.01675
G1 X128.860 Y9.570 E4.07057
M73 Q4 S256
G1 X128.326 Y9.570 E0.01675
G1 X220.566 Y101.810 E4.09426
G1 X220.566 Y102.344 E0.01675
G1 X127.792 Y9.570 E4.11795
M73 P4 R253
G1 X127.258 Y9.570 E0.01675
G1 X220.566 Y102.878 E4.14165
G1 X220.566 Y103.411 E0.01675
G1 X126.725 Y9.570 E4.16534
G1 X126.191 Y9.570 E0.01675
G1 X220.566 Y103.945 E4.18904
G1 X220.566 Y104.479 E0.01675
G1 X125.657 Y9.570 E4.21273
G1 X125.123 Y9.570 E0.01675
G1 X220.566 Y105.013 E4.23643
G1 X220.566 Y105.547 E0.01675
G1 X124.589 Y9.570 E4.26012
G1 X124.056 Y9.570 E0.01675
G1 X220.566 Y106.080 E4.28382
M73 Q4 S255
G1 X220.566 Y106.614 E0.01675
G1 X123.522 Y9.570 E4.30751
G1 X122.988 Y9.570 E0.01675
G1 X220.566 Y107.148 E4.33121
M73 P4 R252
G1 X220.566 Y107.682 E0.01675
G1 X122.454 Y9.570 E4.35490
G1 X121.920 Y9.570 E0.01675
G1 X220.566 Y108.216 E4.37859
M73 P5 R252
G1 X220.566 Y108.750 E0.01675
G1 X121.386 Y9.570 E4.40229
M73 Q5 S255
G1 X120.853 Y9.570 E0.01675
G1 X220.566 Y109.283 E4.42598
G1 X220.566 Y109.817 E0.01675
G1 X120.319 Y9.570 E4.44968
G1 X119.785 Y9.570 E0.01675
G1 X220.566 Y110.351 E4.47337
M73 Q5 S254
G1 X220.566 Y110.885 E0.01675
G1 X119.251 Y9.570 E4.49707
G1 X118.717 Y9.570 E0.01675
G1 X220.566 Y111.419 E4.52076
M73 P5 R251
G1 X220.566 Y111.952 E0.01675
G1 X118.184 Y9.570 E4.54446
G1 X117.650 Y9.570 E0.01675
G1 X220.566 Y112.486 E4.56815
